icons/Send-Square.svg

<svg width="24" height="24" viewBox="0 0 24 24" fill="none" xmlns="http://www.w3.org/2000/svg">
<g id="Send-Square">
<path id="Vector" d="M21 16.99V6.99C21 4.78086 19.2091 2.99 17 2.99L7 2.99C4.79086 2.99 3 4.78086 3 6.99V16.99C3 19.1991 4.79086 20.99 7 20.99H17C19.2091 20.99 21 19.1991 21 16.99Z" stroke="#00153F" stroke-width="1.5" stroke-linecap="round" stroke-linejoin="round"/>
<path id="Vector_2" d="M15.54 8.46L8.46997 15.53" stroke="#00153F" stroke-width="1.5" stroke-linecap="round" stroke-linejoin="round"/>
<path id="Vector_3" d="M11.29 8.46H15.54V12.71" stroke="#00153F" stroke-width="1.5" stroke-linecap="round" stroke-linejoin="round"/>
</g>
</svg>

<svg xmlns="http://www.w3.org/2000/svg" fill="none" viewBox="0 0 24 24"><g stroke="currentColor" stroke-linecap="round" stroke-linejoin="round" stroke-width="1.5"><path d="M21 16.99v-10a4 4 0 0 0-4-4H7a4 4 0 0 0-4 4v10a4 4 0 0 0 4 4h10a4 4 0 0 0 4-4Zm-5.46-8.53-7.07 7.07"/><path d="M11.29 8.46h4.25v4.25"/></g></svg>
